assets/icons/qvision/fingerprint.svg

<svg xmlns="http://www.w3.org/2000/svg" height="24" viewBox="0 0 24 24" width="24"><path d="M0 0h24v24H0z" fill="none"/><path d="M17.81 4.47c-.08 0-.16-.02-.23-.06C15.66 3.42 14 3 12.01 3c-1.98 0-3.86.47-5.57 1.41-.24.13-.54.04-.68-.2-.13-.24-.04-.55.2-.68C7.82 2.52 9.86 2 12.01 2c2.13 0 3.99.47 6.03 1.52.25.13.34.43.21.67-.09.18-.26.28-.44.28zM3.5 9.72c-.1 0-.2-.03-.29-.09-.23-.16-.28-.47-.12-.7.99-1.4 2.25-2.5 3.75-3.27C9.98 4.04 14 4.03 17.15 5.65c1.5.77 2.76 1.86 3.75 3.25.16.22.11.54-.12.7-.23.16-.54.11-.7-.12-.9-1.26-2.04-2.25-3.39-2.94-2.87-1.47-6.54-1.47-9.4.01-1.36.7-2.5 1.7-3.4 2.96-.08.14-.23.21-.39.21zm6.25 12.07c-.13 0-.26-.05-.35-.15-.87-.87-1.34-1.43-2.01-2.64-.69-1.23-1.05-2.73-1.05-4.34 0-2.97 2.54-5.39 5.66-5.39s5.66 2.42 5.66 5.39c0 .28-.22.5-.5.5s-.5-.22-.5-.5c0-2.42-2.09-4.39-4.66-4.39-2.57 0-4.66 1.97-4.66 4.39 0 1.44.32 2.77.93 3.85.64 1.15 1.08 1.64 1.85 2.42.19.2.19.51 0 .71-.11.1-.24.15-.37.15zm7.17-1.85c-1.19 0-2.24-.3-3.1-.89-1.49-1.01-2.38-2.65-2.38-4.39 0-.28.22-.5.5-.5s.5.22.5.5c0 1.41.72 2.74 1.94 3.56.71.48 1.54.71 2.54.71.24 0 .64-.03 1.04-.1.27-.05.53.13.58.41.05.27-.13.53-.41.58-.57.11-1.07.12-1.21.12zM14.91 22c-.04 0-.09-.01-.13-.02-1.59-.44-2.63-1.03-3.72-2.1-1.4-1.39-2.17-3.24-2.17-5.22 0-1.62 1.38-2.94 3.08-2.94 1.7 0 3.08 1.32 3.08 2.94 0 1.07.93 1.94 2.08 1.94s2.08-.87 2.08-1.94c0-3.77-3.25-6.83-7.25-6.83-2.84 0-5.44 1.58-6.61 4.03-.39.81-.59 1.76-.59 2.8 0 .78.07 2.01.67 3.61.1.26-.03.55-.29.64-.26.1-.55-.04-.64-.29-.49-1.31-.73-2.61-.73-3.96 0-1.2.23-2.29.68-3.24 1.33-2.79 4.28-4.6 7.51-4.6 4.55 0 8.25 3.51 8.25 7.83 0 1.62-1.38 2.94-3.08 2.94s-3.08-1.32-3.08-2.94c0-1.07-.93-1.94-2.08-1.94s-2.08.87-2.08 1.94c0 1.71.66 3.31 1.87 4.51.95.94 1.86 1.46 3.27 1.85.27.07.42.35.35.61-.05.23-.26.38-.47.38z"/></svg>

<svg width="24" height="24" viewBox="0 0 24 24" fill="none" xmlns="http://www.w3.org/2000/svg">
<g clip-path="url(#clip0_147_4201)">
<path d="M17.81 4.47C17.73 4.47 17.65 4.45 17.58 4.41C15.66 3.42 14 3 12.01 3C10.03 3 8.15 3.47 6.44 4.41C6.2 4.54 5.9 4.45 5.76 4.21C5.63 3.97 5.72 3.66 5.96 3.53C7.82 2.52 9.86 2 12.01 2C14.14 2 16 2.47 18.04 3.52C18.29 3.65 18.38 3.95 18.25 4.19C18.16 4.37 17.99 4.47 17.81 4.47ZM3.5 9.72C3.4 9.72 3.3 9.69 3.21 9.63C2.98 9.47 2.93 9.16 3.09 8.93C4.08 7.53 5.34 6.43 6.84 5.66C9.98 4.04 14 4.03 17.15 5.65C18.65 6.42 19.91 7.51 20.9 8.9C21.06 9.12 21.01 9.44 20.78 9.6C20.55 9.76 20.24 9.71 20.08 9.48C19.18 8.22 18.04 7.23 16.69 6.54C13.82 5.07 10.15 5.07 7.29 6.55C5.93 7.25 4.79 8.25 3.89 9.51C3.81 9.65 3.66 9.72 3.5 9.72ZM9.75 21.79C9.62 21.79 9.49 21.74 9.4 21.64C8.53 20.77 8.06 20.21 7.39 19C6.7 17.77 6.34 16.27 6.34 14.66C6.34 11.69 8.88 9.27 12 9.27C15.12 9.27 17.66 11.69 17.66 14.66C17.66 14.94 17.44 15.16 17.16 15.16C16.88 15.16 16.66 14.94 16.66 14.66C16.66 12.24 14.57 10.27 12 10.27C9.43 10.27 7.34 12.24 7.34 14.66C7.34 16.1 7.66 17.43 8.27 18.51C8.91 19.66 9.35 20.15 10.12 20.93C10.31 21.13 10.31 21.44 10.12 21.64C10.01 21.74 9.88 21.79 9.75 21.79ZM16.92 19.94C15.73 19.94 14.68 19.64 13.82 19.05C12.33 18.04 11.44 16.4 11.44 14.66C11.44 14.38 11.66 14.16 11.94 14.16C12.22 14.16 12.44 14.38 12.44 14.66C12.44 16.07 13.16 17.4 14.38 18.22C15.09 18.7 15.92 18.93 16.92 18.93C17.16 18.93 17.56 18.9 17.96 18.83C18.23 18.78 18.49 18.96 18.54 19.24C18.59 19.51 18.41 19.77 18.13 19.82C17.56 19.93 17.06 19.94 16.92 19.94ZM14.91 22C14.87 22 14.82 21.99 14.78 21.98C13.19 21.54 12.15 20.95 11.06 19.88C9.66 18.49 8.89 16.64 8.89 14.66C8.89 13.04 10.27 11.72 11.97 11.72C13.67 11.72 15.05 13.04 15.05 14.66C15.05 15.73 15.98 16.6 17.13 16.6C18.28 16.6 19.21 15.73 19.21 14.66C19.21 10.89 15.96 7.83 11.96 7.83C9.12 7.83 6.52 9.41 5.35 11.86C4.96 12.67 4.76 13.62 4.76 14.66C4.76 15.44 4.83 16.67 5.43 18.27C5.53 18.53 5.4 18.82 5.14 18.91C4.88 19.01 4.59 18.87 4.5 18.62C4.01 17.31 3.77 16.01 3.77 14.66C3.77 13.46 4 12.37 4.45 11.42C5.78 8.63 8.73 6.82 11.96 6.82C16.51 6.82 20.21 10.33 20.21 14.65C20.21 16.27 18.83 17.59 17.13 17.59C15.43 17.59 14.05 16.27 14.05 14.65C14.05 13.58 13.12 12.71 11.97 12.71C10.82 12.71 9.89 13.58 9.89 14.65C9.89 16.36 10.55 17.96 11.76 19.16C12.71 20.1 13.62 20.62 15.03 21.01C15.3 21.08 15.45 21.36 15.38 21.62C15.33 21.85 15.12 22 14.91 22Z" fill="#323232"/>
</g>
<defs>
<clipPath id="clip0_147_4201">
<rect width="24" height="24" fill="white"/>
</clipPath>
</defs>
</svg>
